Reedweeks/img/arrow.svg

<svg width="17" height="14" viewBox="0 0 17 14" fill="none" xmlns="http://www.w3.org/2000/svg">
<path d="M6.89775 13.4831C6.81558 13.404 6.46425 13.1053 6.17525 12.8271C4.35767 11.1959 1.38267 6.94067 0.474584 4.71349C0.328667 4.37525 0.0198337 3.52012 3.42939e-07 3.06322C3.62076e-07 2.62543 0.102001 2.20809 0.308834 1.80984C0.597834 1.31339 1.05258 0.915148 1.5895 0.696931C1.96208 0.556453 3.077 0.338236 3.09683 0.338236C4.31658 0.120019 6.2985 -4.67777e-07 8.48867 -3.72042e-07C10.5754 -2.80827e-07 12.4766 0.120019 13.7148 0.298685C13.7346 0.319143 15.1201 0.53736 15.5947 0.776035C16.4617 1.21383 17 2.06897 17 2.98412L17 3.06322C16.9787 3.65923 16.4404 4.91262 16.4206 4.91262C15.5111 7.01978 12.682 11.1768 10.8021 12.8475C10.8021 12.8475 10.319 13.3181 10.0172 13.5226C9.58375 13.8418 9.04683 14 8.50992 14C7.91067 14 7.3525 13.8213 6.89775 13.4831" fill="#FF5555"/>
</svg>

<svg width="17" height="14" fill="none" xmlns="http://www.w3.org/2000/svg"><path d="M6.898 13.483c-.082-.079-.434-.378-.723-.656-1.817-1.631-4.792-5.886-5.7-8.114C.329 4.375.02 3.52 0 3.063c0-.438.102-.855.309-1.253A2.645 2.645 0 0 1 1.589.697C1.962.557 3.077.338 3.098.338 4.317.12 6.298 0 8.489 0c2.086 0 3.988.12 5.226.299.02.02 1.405.238 1.88.477C16.462 1.214 17 2.069 17 2.984v.08c-.021.595-.56 1.849-.58 1.849-.909 2.107-3.738 6.264-5.618 7.934 0 0-.483.471-.785.676-.433.319-.97.477-1.507.477-.6 0-1.157-.179-1.612-.517" fill="#F55"/></svg>
